X:1
T:Lady Mary Murray
T:Lady Mary Murray
T:Nathaniel Gow
C:Nathaniel Gow
L:1/8
Q:1/8=128
M:4/4
K:G
V:1 treble 
V:1
|: E | D>E G>B d/c/B/A/ BG | A>B c>B A>G F>E | D>E G>B d/c/B/A/ BG | A<B g>B G/G/G GE | %5
 D>E G>B d/c/B/A/ BG | A>B c>B A>G F>E | D>E G>B d/c/B/A/ BG | A<B g>B G/G/G Gg | %9
 d>e g>a b/a/g/f/ g>e | d<B g>B Ad FD | d>e g>a b/a/g/f/ ge | d>B g>B G/G/G G>e | d>e g>b a<b g>a | %14
 e<g B>g A>G F>E | D>E G>B d/c/B/A/ BG | A<B g>B G/G/G G :| %17

